svg/logo/safari_fill.svg

<?xml version="1.0" encoding="UTF-8"?>
<svg width="24px" height="24px" viewBox="0 0 24 24" version="1.1" xmlns="http://www.w3.org/2000/svg" xmlns:xlink="http://www.w3.org/1999/xlink">
    <title>safari_fill</title>
    <g id="Icon" stroke="none" stroke-width="1" fill="none" fill-rule="evenodd">
        <g id="Logo" transform="translate(-768.000000, -240.000000)">
            <g id="safari_fill" transform="translate(768.000000, 240.000000)">
                <path d="M24,0 L24,24 L0,24 L0,0 L24,0 Z M12.5935,23.2578 L12.5819,23.2595 L12.5109,23.295 L12.4919,23.2987 L12.4767,23.295 L12.4057,23.2595 C12.3958,23.2564 12.387,23.259 12.3821,23.2649 L12.378,23.2758 L12.3609,23.7031 L12.3659,23.7235 L12.3769,23.7357 L12.4805,23.8097 L12.4953,23.8136 L12.5071,23.8097 L12.6107,23.7357 L12.6233,23.7197 L12.6267,23.7031 L12.6096,23.2758 C12.6076,23.2657 12.601,23.2593 12.5935,23.2578 Z M12.8584,23.1453 L12.8445,23.1473 L12.6598,23.2397 L12.6499,23.2499 L12.6472,23.2611 L12.6651,23.6906 L12.6699,23.7034 L12.6784,23.7105 L12.8793,23.8032 C12.8914,23.8069 12.9022,23.803 12.9078,23.7952 L12.9118,23.7812 L12.8777,23.1665 C12.8753,23.1546 12.8674,23.147 12.8584,23.1453 Z M12.143,23.1473 C12.1332,23.1424 12.1222,23.1453 12.1156,23.1526 L12.1099,23.1665 L12.0758,23.7812 C12.0751,23.7927 12.0828,23.8019 12.0926,23.8046 L12.1083,23.8032 L12.3092,23.7105 L12.3186,23.7024 L12.3225,23.6906 L12.3404,23.2611 L12.3372,23.2485 L12.3278,23.2397 L12.143,23.1473 Z" id="MingCute" fill-rule="nonzero"></path>
                <path d="M10.9999,2.04932 C8.98869,2.24901 7.15274,3.0446 5.67115,4.25704 L5.98951,4.5754 C6.38003,4.96592 6.38003,5.59908 5.98951,5.98961 C5.59898,6.38013 4.96582,6.38013 4.57529,5.98961 L4.25695,5.67127 C3.04456,7.15284 2.249,8.98874 2.04932,10.9999 L2.49991,10.9999 C3.0522,10.9999 3.49991,11.4477 3.49991,11.9999 C3.49991,12.5522 3.0522,12.9999 2.49991,12.9999 L2.04932,12.9999 C2.51838,17.7244 6.27552,21.4815 10.9999,21.9506 L10.9999,21.4999 C10.9999,20.9477 11.4477,20.4999 11.9999,20.4999 C12.5522,20.4999 12.9999,20.9477 12.9999,21.4999 L12.9999,21.9506 C15.0112,21.7509 16.8471,20.9553 18.3287,19.7429 L18.0104,19.4246 C17.6198,19.0341 17.6198,18.4009 18.0104,18.0104 C18.4009,17.6199 19.034,17.6199 19.4246,18.0104 L19.7429,18.3287 C20.9553,16.8471 21.7509,15.0112 21.9506,12.9999 L21.5,12.9999 C20.9477,12.9999 20.5,12.5522 20.5,11.9999 C20.5,11.4477 20.9477,10.9999 21.5,10.9999 L21.9506,10.9999 C21.4815,6.27552 17.7244,2.51838 12.9999,2.04932 L12.9999,2.49994 C12.9999,3.05223 12.5522,3.49994 11.9999,3.49994 C11.4477,3.49994 10.9999,3.05223 10.9999,2.49994 L10.9999,2.04932 Z M16.4657,6.84393 L10.7732,10.4664 C10.6497,10.545 10.545,10.6497 10.4664,10.7732 L6.84396,16.4656 C6.55684,16.9168 7.08305,17.443 7.53422,17.1559 L13.2267,13.5334 C13.3502,13.4549 13.4549,13.3501 13.5335,13.2267 L17.1559,7.53419 C17.443,7.08302 16.9168,6.55682 16.4657,6.84393 Z" id="形状" fill="#09244B"></path>
            </g>
        </g>
    </g>
</svg>

<svg xmlns="http://www.w3.org/2000/svg" width="24" height="24"><g fill="none" fill-rule="evenodd"><path d="M24 0v24H0V0h24ZM12.594 23.258l-.012.002-.071.035-.02.004-.014-.004-.071-.036c-.01-.003-.019 0-.024.006l-.004.01-.017.428.005.02.01.013.104.074.015.004.012-.004.104-.074.012-.016.004-.017-.017-.427c-.002-.01-.009-.017-.016-.018Zm.264-.113-.014.002-.184.093-.01.01-.003.011.018.43.005.012.008.008.201.092c.012.004.023 0 .029-.008l.004-.014-.034-.614c-.003-.012-.01-.02-.02-.022Zm-.715.002a.023.023 0 0 0-.027.006l-.006.014-.034.614c0 .012.007.02.017.024l.015-.002.201-.093.01-.008.003-.011.018-.43-.003-.012-.01-.01-.184-.092Z"/><path fill="#09244B" d="M11 2.05A9.954 9.954 0 0 0 5.67 4.256l.319.318A1 1 0 0 1 4.575 5.99l-.318-.319A9.954 9.954 0 0 0 2.049 11h.45a1 1 0 0 1 0 2h-.45A10.003 10.003 0 0 0 11 21.95v-.45a1 1 0 0 1 2 0v.45a9.954 9.954 0 0 0 5.33-2.207l-.319-.318a1 1 0 1 1 1.415-1.415l.318.319a9.954 9.954 0 0 0 2.208-5.33H21.5a1 1 0 1 1 0-2h.45A10.003 10.003 0 0 0 13 2.05v.45a1 1 0 1 1-2 0v-.45Zm5.466 4.794-5.693 3.622a1 1 0 0 0-.307.307l-3.622 5.693c-.287.45.239.977.69.69l5.693-3.623a1 1 0 0 0 .306-.306l3.623-5.693c.287-.451-.24-.977-.69-.69Z"/></g></svg>
